X:1
L:1/8
M:4/4
K:F
|:""F"" agfe""Bb"" fdcB |""C"" ABGE""F"" FC C2 |""Dm"" FGAF""Gm"" D2 GF |""C"" EG""G""cd""C"" c2 fg | 
""F"" agfe""Bb"" fdcB |""C"" ABGE""F"" FCFE | FGAF""Gm"" G2 cB |1 A""C""BGE""F"" F2 fg :|2 A""C""BGE""F"" F2 AB |: 
""F"" c3 B AFGA |""Bb"" BABG AFAB |""F"" c3 B Acfa |""C"" abge""F"" f2 fg |""F"" abge""Bb"" fdcB | 
""C"" ABGE""F"" FCFE |""Dm"" FGAF""Gm"" G2 cB |1 A""C""BGE""F"" F2 AB :|2 A""C""BGE""F"" F4 |]
